X:1
T:Fugue in E Minor
T:Fugue in E Minor
T:Alexander Scriabin
T:(Алекса́ндр Скря́бин)
T:WoO 20
C:Alexander Scriabin
%%score { ( 1 4 5 ) | ( 2 3 6 ) }
L:1/8
Q:1/4=100
M:4/4
K:G
V:1 treble nm="Piano" snm="Pno."
V:4 treble 
V:5 treble 
V:2 bass 
V:3 bass 
V:6 bass 
V:1
"^Con moto"!p! z8 | z8 | z8 | z8 | z8 | z8 | z8 | z8 | z8 | z8 | C[K:bass]B,A,G, F,E,^D,B, | %11
 G,2 E,F, G,F,G,A, |[K:treble] !tenuto!B4 !tenuto!^A3 F | %13
 !tenuto!=A2 !tenuto!^G2 (EF) !tenuto!=G2- | GFED ^CB,^A,F | D^C F2 DCDE | F4 B4- | %17
 !tenuto!e4 !tenuto!^d3 B | !tenuto!=d2 !tenuto!^c2 (AB) !tenuto!=c2- | cBAG FE^DB | G3 A BEF^G | %21
 ABcB ABAG | F3 G ADEF | GABA GAGF | E2 z2 z4 | D2 ED C2 DC | z8 | !tenuto!c4 !tenuto!B3 G | %28
 (!tenuto!_B2 !tenuto!A2) (=FG) !tenuto!_A2- | AG=FE DCB,G | EDE=F G4 | G4 A4 | B2 cd e2 _e2 | %33
 a2 g2 c2 d2 | d4- dBcd | e4 g3 B | c6 Bc | d3 c d4 | e4- edcB | A3 B cBdc | B4- BcBA | %41
 ^G3 A BEFG | !tenuto!A4 !tenuto!^G3 E | !tenuto!=G2 !tenuto!^F2 (DE) !tenuto!=F2- | %44
 FEDC B,A,^G,E- | E=FED CB,CD |!<(! E4 ^F4 | !tenuto!e4 !tenuto!^d3 B | %48
 !tenuto!=d2 !tenuto!^c2 (AB) !tenuto!=c2- | cdcB A2 cB- | B2 z2 z4 | z8 | (!tenuto!^g4 ^^f3 ^d | %53
 ^f2 ^e2 ^c^d =e2-)!<)! |!f! e^d^cd edec | e2 ^d2 B^c =d2- | d^cBc dcdB | d2 ^c2 AB =c2- | %58
 cBAG FGFE | ^D4- D^^CDE | F4- F^EFG | A3 B cB^c^d | !tenuto!e4 !tenuto!^d3 B | %63
 !tenuto!=d2 !tenuto!^c2(xB) !tenuto!=c2- | cdcB c2 BA | !fermata![B,E^G]8 |] %66
V:2
 z8 | z8 | z8 | z8 | !tenuto!B,4 !tenuto!^A,3 F, | %5
 !tenuto!=A,2 !tenuto!^G,2 (E,F,) (!tenuto!=G,2- | G,F,E,D, ^C,B,,^A,,F, | D,2 B,,4) B,A, | %8
 G,A,CB,[I:staff -1] A,[I:staff +1]G,F,^D, | E,4 E,3[I:staff -1] G, | %10
 F,2[I:staff +1] B,,2 C,2 B,,2 | B,,8- | B,,4 E,4 | F,2 ^G,2 =G,F, =E,2- | E,F,- F,2 E,4 | %15
 F,E,D,G, F,4 | F,6 B,A, | G,A,CB, B,4 | B,2 ^C2 =CB, A,2- | A,B,- B,2 CB,A,F, | G,3 F, E,4 | E,8 | %22
 F,3 E, D,4 | D,8 | E,2 G,2 A,4 | F,2 E,4 D,2 | G,8 | G,=F,A,G, F,E,D,B,, | C,6 B,,C, | %29
 D,3 E, =F,E,D,B,, | z8 | E,[I:staff -1]C[I:staff +1]G,E, D,A,CD, | DG C4 C2- | %33
 C2 D2[I:staff -1] E2[I:staff +1] D2 |[I:staff -1] D8 |[I:staff +1] !tenuto!C4 !tenuto!B,3 G, | %36
 !tenuto!_B,2 !tenuto!A,2 (=F,G,) !tenuto!_A,2- | A,G,=F,E, D,C,B,,G, | E,2 C,2 C,4 | C,8 | D,8 | %41
 D,6 E,2 | CB,DC B,CED | ^CA,D=C B,3 A, | ^G,2 E,2 =F,2 E,2 | E,4 z4 | !tenuto!E4 !tenuto!^D3 B, | %47
 !tenuto!=D2 !tenuto!^C2 A,B,=CA, | B,2 ^C2 =CB, A,2- | A,3 B, CB,A,B, | z4 (!tenuto!B,4 | %51
 ^A,3 F, =A,2 ^G,2 | E,F, ^G,2) z4 | z8 | z8 | z8 | z8 | z8 | E4 C4- | CDCB, A,4 | A,8 | B,8- | %62
 B,A,F,G, A,G,F,^D | E8 | F,6 ^D2 | !fermata![E,,E,E]8 |] %66
V:3
 !tenuto!E,4 !tenuto!^D,3 B,, | !tenuto!=D,2 !tenuto!^C,2 (A,,B,,) (!tenuto!=C,2- | %2
 C,B,,A,,G,, F,,E,,^D,,B,, | G,,4 E,,2 F,,2) | G,,E,B,,G,, F,,^C, E,2 | ^D,B,,E,=D, ^C,3 B,, | %6
 ^A,,2 ^C,B,, E,,G,, F,,2- | F,,E,,D,,^C,, D,,2 ^D,,2 | E,,F,,A,,G,, F,,G,,B,,A,, | %9
 ^G,,E,,A,,=G,, F,,3 E,, | ^D,,2 E,,2 A,,2 B,,2- | B,,A,,G,,F,, E,,^D,,E,,F,, | %12
 G,,E,B,,G,, F,,^C, E,2 | ^D,B,,^E,=D, (^C,3 B,,) | ^A,,2 B,,2 E,D, ^C,2 | B,,4- B,,3 ^C, | %16
 D,E,D,^C, D,2 ^D,2 | E,F,A,G, F,G,B,A, | ^G,E,A,=G, (F,3 E,) | ^D,2 E,2 A,G,F,D, | %20
 E,4 E,=D,C,B,, | A,,6 C,2 | D,4- D,C,B,,A,, | G,,6 B,,2 | C,D,C,B,, A,,4 | %25
 B,,A,, G,,2 A,,G,, F,,2 | D,4 =F,4 | C,2 z2 z4 | x8 | x8 | C,4- C,B,,C,D, | %31
 !tenuto!G,4 !tenuto!^F,3 D, | !tenuto!=F,2 !tenuto!E,2 (C,D,) !tenuto!_E,2- | %33
 E,D,C,B,, A,,G,,F,,D, | B,,A,,G,,A,, B,,G,,A,,B,, | C,D,=F,E, D,E,G,F, | E,C,=F,E, D,3 C, | %37
 B,,3 C, =F,,2 G,,2- | G,,=F,,E,,D,, E,,4 | =F,,6 E,,2 | D,,E,,=F,,E,, D,,4 | E,,4 D,2 C,B,, | %42
 E,=F,D,E, D,C,B,,^G,, | E,2 D,2 A,,3 C, | B,,2 C,2 D,4 | C,D,C,B,, A,,3 B,, | C,A,E,C, B,,F, A,2 | %47
 ^G,E,A,=G, F,4 | ^G,E,A,=G, (F,3 E,) | ^D,8 | (!tenuto!E,4 ^D,3 B,, | D,2 ^C,2 =A,,B,, C,2) | z8 | %53
 x8 | x8 | x8 | x8 | x8 | G,2 CB, A,B,A,G, | F,4 F,3 E, | ^D,3 =D, C,4 | B,,8 | [E,,E,]8- | %63
 [E,,E,]8- | [E,,E,]8 | x8 |] %66
V:4
 x8 | x8 | x8 | x8 | x8 | x8 | x8 | x8 | !tenuto!E4 !tenuto!^D3 B, | %9
 !tenuto!=D2 !tenuto!^C2 (A,B,) !tenuto!=C2- | x[K:bass] x7 | x8 |[K:treble] B,4 ^C4 | B,4 B,3 D | %14
 ^C3 B, G,2 F,^A, | B,2 B,-E B,4 | B,CB,^A, B,3 F | E4 B4 | B2 A2 E3 G | F3 E C3 B, | %20
[I:staff +1] B,[I:staff -1]CB,A,[I:staff +1] G,[I:staff -1]^G,A,B, | %21
 CB,[I:staff +1]A,[I:staff -1]B, C4 | A,B,A,[I:staff +1]G, F,2[I:staff -1] G,A, | B,A,G,A, B,4 | %24
 C2 E2 FGFE | B,4 A,4 | B,CB,A, B,G,A,B, | (CD)=FE DEFD | EC=FE D3 C | =B,3 C =A, G,2 D | %30
 G,2 CD E3 D | C8 | G6 AG | ^F2 G2 G2 AF | GABA G4 | G=FAG FE D2 | G2 =F2 D4 | D3 E =F4 | [CG]8 | %39
 =F6 A2 | =FEDE F4 | B,CB,A, ^G,2 A,B, | ED=FE E4- | E2 F2 =FE D2 | D2 A,4 E2 | A,8 | A,8 | %47
 E3 ^c A4 | B2 A2 A4 | [FA]8 | ^G2 x6 | z4 !tenuto!^c4 | ^B3 ^G =B2 ^A2 | =A2 ^G4 =G2 | F8 | %55
 F6 =F2 | [^G,E]8 | E4 z4 | x8 | z4 C4- | CB,CD ^D4 | F^EFG A4 | GAcB B4 | ^GEA=G F3 E | ^D6 C2 | %65
 x8 |] %66
V:5
 x8 | x8 | x8 | x8 | x8 | x8 | x8 | x8 | x8 | x8 | x[K:bass] x7 | x8 |[K:treble] x8 | x8 | x8 | %15
 x8 | x8 | BAFG AGF^D | E4 A4 | f2 B2 A4 | E8 | E8 | D8 | D4 x4 | G,2 C2 C4 | x8 | x8 | x8 | x8 | %29
 x8 | x8 | x8 | x8 | x8 | x8 | C4 G4- | C4 =F4 | =FG_AG =A2 G2 | x8 | CDCB,[I:staff +1] A,4 | %40
[I:staff -1] B,4 x2 DC | E8 | x8 | x8 | x8 | x8 | x8 | B,2 A,E F4 | E4 E3 G | x8 | E2 x6 | %51
 (!tenuto!F4 ^E3 ^C | =E2 ^D2 B,^C D2) | ^B,2 ^C4 =B,2 | ^A,8 | B,6 A,2 | x8 | A,4 x4 | x8 | x8 | %60
 x8 | ^D4 D3 F | EFAG FGBA | B2 A2 A4 | A6 F2 | x8 |] %66
V:6
 x8 | x8 | x8 | x8 | x8 | x8 | x8 | x8 | x8 | x8 | x8 | x8 | x8 | x8 | x8 | x8 | x8 | x8 | x8 | %19
 x8 | x8 | x8 | x8 | x8 | x8 | x8 | G,,8 | E,2 x6 | x8 | x8 | x8 | x8 | x8 | x8 | x8 | x8 | x8 | %37
 x8 | x8 | x8 | x8 | x8 | A,,4 E,4 | A,,4 D,4 | x8 | x8 | x8 | x8 | x8 | x8 | x8 | x8 | x8 | x8 | %54
 x8 | x8 | x8 | x8 | x8 | x8 | x8 | x8 | x8 | x8 | x8 | x8 |] %66

